icons/Yaru-remix-dark/scalable/apps/application-x-executable-symbolic.svg

<?xml version="1.0" encoding="UTF-8" standalone="no"?>
<svg
   xmlns:osb="http://www.openswatchbook.org/uri/2009/osb"
   xmlns:dc="http://purl.org/dc/elements/1.1/"
   xmlns:cc="http://creativecommons.org/ns#"
   xmlns:rdf="http://www.w3.org/1999/02/22-rdf-syntax-ns#"
   xmlns:svg="http://www.w3.org/2000/svg"
   xmlns="http://www.w3.org/2000/svg"
   xmlns:sodipodi="http://sodipodi.sourceforge.net/DTD/sodipodi-0.dtd"
   xmlns:inkscape="http://www.inkscape.org/namespaces/inkscape"
   height="16.00012"
   id="svg7384"
   version="1.1"
   width="16.0002"
   sodipodi:docname="application-x-executable-symbolic.svg"
   inkscape:version="0.92.5 (2060ec1f9f, 2020-04-08)">
  <sodipodi:namedview
     pagecolor="#ffffff"
     bordercolor="#666666"
     borderopacity="1"
     objecttolerance="10"
     gridtolerance="10"
     guidetolerance="10"
     inkscape:pageopacity="0"
     inkscape:pageshadow="2"
     inkscape:window-width="1294"
     inkscape:window-height="704"
     id="namedview1912"
     showgrid="false"
     inkscape:zoom="1"
     inkscape:cx="3.71613"
     inkscape:cy="10.728085"
     inkscape:window-x="72"
     inkscape:window-y="27"
     inkscape:window-maximized="1"
     inkscape:current-layer="svg7384"
     inkscape:snap-global="true">
    <inkscape:grid
       type="xygrid"
       id="grid2461" />
  </sodipodi:namedview>
  <metadata
     id="metadata20854">
    <rdf:RDF>
      <cc:Work
         rdf:about="">
        <dc:title></dc:title>
        <dc:format>image/svg+xml</dc:format>
        <dc:type
           rdf:resource="http://purl.org/dc/dcmitype/StillImage" />
      </cc:Work>
    </rdf:RDF>
  </metadata>
  <defs
     id="defs7386">
    <linearGradient
       id="linearGradient5606"
       osb:paint="solid">
      <stop
         id="stop5608"
         offset="0"
         style="stop-color:#000000;stop-opacity:1;" />
    </linearGradient>
    <linearGradient
       id="linearGradient4526"
       osb:paint="solid">
      <stop
         id="stop4528"
         offset="0"
         style="stop-color:#ffffff;stop-opacity:1;" />
    </linearGradient>
    <linearGradient
       id="linearGradient3600-4"
       osb:paint="gradient">
      <stop
         id="stop3602-7"
         offset="0"
         style="stop-color:#f4f4f4;stop-opacity:1" />
      <stop
         id="stop3604-6"
         offset="1"
         style="stop-color:#dbdbdb;stop-opacity:1" />
    </linearGradient>
  </defs>
  <g
     id="layer9"
     label="status"
     style="display:inline"
     transform="translate(-813.00006,167.00006)" />
  <g
     id="layer2"
     style="display:inline"
     transform="translate(-571.99986,-199.99994)" />
  <g
     id="layer4"
     style="display:inline"
     transform="translate(-571.99986,-199.99994)" />
  <g
     id="g1812"
     style="display:inline"
     transform="translate(-571.99986,-199.99994)" />
  <g
     id="g6217"
     style="display:inline"
     transform="translate(-571.99986,-199.99994)" />
  <g
     id="layer3"
     style="display:inline"
     transform="translate(-571.99986,-199.99994)" />
  <g
     id="layer1"
     style="display:inline"
     transform="translate(-571.99986,-199.99994)" />
  <path
     style="color:#000000;font-style:normal;font-variant:normal;font-weight:normal;font-stretch:normal;font-size:medium;line-height:normal;font-family:sans-serif;font-variant-ligatures:normal;font-variant-position:normal;font-variant-caps:normal;font-variant-numeric:normal;font-variant-alternates:normal;font-feature-settings:normal;text-indent:0;text-align:start;text-decoration:none;text-decoration-line:none;text-decoration-style:solid;text-decoration-color:#000000;letter-spacing:normal;word-spacing:normal;text-transform:none;writing-mode:lr-tb;direction:ltr;text-orientation:mixed;dominant-baseline:auto;baseline-shift:baseline;text-anchor:start;white-space:normal;shape-padding:0;clip-rule:nonzero;display:inline;overflow:visible;visibility:visible;opacity:1;isolation:auto;mix-blend-mode:normal;color-interpolation:sRGB;color-interpolation-filters:linearRGB;solid-color:#000000;solid-opacity:1;vector-effect:none;fill:#808080;fill-opacity:1;fill-rule:nonzero;stroke:none;stroke-width:2;stroke-linecap:butt;stroke-linejoin:miter;stroke-miterlimit:4;stroke-dasharray:2, 2;stroke-dashoffset:0;stroke-opacity:1;color-rendering:auto;image-rendering:auto;shape-rendering:auto;text-rendering:auto;enable-background:accumulate"
     d="m 12.070312,6.0078125 c -0.377544,0.019558 -0.75486,0.064819 -1.126953,0.1347656 L 11.3125,8.1074219 c 0.05572,-0.010473 0.113892,-0.010541 0.169922,-0.019531 -0.670632,0.1064649 -1.320441,0.317356 -1.9257814,0.625 0.03896,-0.01987 0.075899,-0.045385 0.1152344,-0.064453 L 8.7988281,6.8496094 C 8.1191352,7.1790557 7.4840518,7.5983614 6.9140625,8.0957031 l 1.3144531,1.5058594 c 0.0049,-0.00428 0.01071,-0.00746 0.015625,-0.011719 -0.4658914,0.405245 -0.8716623,0.8748082 -1.2050781,1.3945312 0.017521,-0.02725 0.0309,-0.05702 0.048828,-0.08398 L 5.421875,9.7929688 C 5.0029469,10.423126 4.6697983,11.108534 4.4335938,11.828125 l 1.9003906,0.625 c 0.011232,-0.03422 0.029197,-0.06557 0.041016,-0.09961 -0.055891,0.152365 -0.1060567,0.30677 -0.1503906,0.46289 -0.1269717,0.486345 -0.1971018,0.985776 -0.2089844,1.488282 0.00158,-0.04945 -0.00666,-0.09906 -0.00391,-0.148438 L 4.015625,14.044922 C 3.9790913,14.700388 4.0341794,15.355635 4.1503906,16 5.1705729,16 6.1907552,16 7.2109375,16 7.0717793,15.512122 7.0007938,15.007336 7,14.5 7,11.462434 9.4624339,9 12.5,9 c 1.27757,6.774e-4 2.515055,0.4460891 3.5,1.259766 V 6.7714844 C 15.802831,6.6824392 15.61009,6.5831648 15.40625,6.5097656 l -0.677734,1.8828125 c 0.01177,0.00424 0.02341,0.00936 0.03516,0.013672 C 14.573959,8.3354294 14.38104,8.2735129 14.185547,8.2207031 13.770759,8.111334 13.346162,8.0432939 12.917969,8.0175781 c 0.0395,0.00258 0.07972,-0.00137 0.11914,0.00195 L 13.203125,6.0253906 C 12.825931,5.9936486 12.44786,5.988254 12.070312,6.0078125 Z"
     id="path2489"
     inkscape:connector-curvature="0"
     sodipodi:nodetypes="sccccccccccccccccccccccccccccccccs" />
  <path
     style="display:inline;opacity:1;fill:#808080;fill-opacity:1;stroke:none;stroke-width:1;stroke-linejoin:bevel;stroke-miterlimit:4;stroke-dasharray:none;stroke-dashoffset:0;stroke-opacity:1"
     d="M 5.4589844 0 A 4 4 0 0 1 6 2 A 4 4 0 0 1 2 6 A 4 4 0 0 1 0 5.4589844 L 0 7.6679688 L 0.90039062 7.9882812 L 1.28125 6.9433594 A 5 5 0 0 0 2 7 A 5 5 0 0 0 2.7089844 6.9433594 L 3.0917969 8 L 4.9433594 7.3125 L 4.5683594 6.2832031 A 5 5 0 0 0 5.6894531 5.3671875 L 6.6308594 5.9121094 L 7.6074219 4.1953125 L 6.7050781 3.6757812 A 5 5 0 0 0 6.9921875 2.2148438 L 8 2.0390625 L 7.6445312 0.095703125 L 6.6835938 0.265625 A 5 5 0 0 0 6.5703125 0 L 5.4589844 0 z "
     id="path9873" />
</svg>

<svg xmlns="http://www.w3.org/2000/svg" height="16" width="16">
    <path style="line-height:normal;font-variant-ligatures:normal;font-variant-position:normal;font-variant-caps:normal;font-variant-numeric:normal;font-variant-alternates:normal;font-feature-settings:normal;text-indent:0;text-align:start;text-decoration-line:none;text-decoration-style:solid;text-decoration-color:#000;text-transform:none;text-orientation:mixed;white-space:normal;shape-padding:0;isolation:auto;mix-blend-mode:normal;solid-color:#000;solid-opacity:1" d="M12.07 6.008c-.377.02-.755.065-1.127.135l.37 1.964c.055-.01.113-.01.17-.02a6.5 6.5 0 00-1.926.626c.039-.02.076-.045.115-.065L8.799 6.85c-.68.33-1.315.748-1.885 1.246L8.23 9.602c.004-.005.01-.008.015-.012a6.5 6.5 0 00-1.205 1.394c.018-.027.031-.057.049-.084L5.422 9.793a8.425 8.425 0 00-.988 2.035l1.9.625c.011-.034.03-.065.041-.1a6.5 6.5 0 00-.15.463 6.5 6.5 0 00-.21 1.489c.002-.05-.006-.1-.003-.149l-1.996-.111c-.037.655.018 1.31.134 1.955h3.06A5.5 5.5 0 0116 10.26V6.77c-.197-.089-.39-.188-.594-.261l-.677 1.883.035.013a6.5 6.5 0 00-.578-.185 6.5 6.5 0 00-1.268-.203c.04.002.08-.002.12.002l.165-1.995a8.35 8.35 0 00-1.133-.017z" color="#000" font-weight="400" font-family="sans-serif" overflow="visible" fill="gray"/>
    <path d="M5.459 0A4 4 0 016 2a4 4 0 01-4 4 4 4 0 01-2-.541v2.209l.9.32.381-1.045A5 5 0 002 7a5 5 0 00.709-.057L3.092 8l1.851-.688-.375-1.029a5 5 0 001.121-.916l.942.545.976-1.717-.902-.52a5 5 0 00.287-1.46L8 2.039 7.645.096l-.961.17A5 5 0 006.57 0H5.46z" fill="gray"/>
</svg>
